svg/24/ar--filled.svg

<svg width="24" height="24" viewBox="0 0 24 24" fill="currentColor" xmlns="http://www.w3.org/2000/svg"><path d="M2 2.75C2 2.33579 2.33579 2 2.75 2H5.25C5.66421 2 6 2.33579 6 2.75C6 3.16421 5.66421 3.5 5.25 3.5H3.5V5.25C3.5 5.66421 3.16421 6 2.75 6C2.33579 6 2 5.66421 2 5.25V2.75Z"/><path d="M2 21.25V18.75C2 18.3358 2.33579 18 2.75 18C3.16421 18 3.5 18.3358 3.5 18.75L3.5 20.5H5.25C5.66421 20.5 6 20.8358 6 21.25C6 21.6642 5.66421 22 5.25 22H2.75C2.55109 22 2.36032 21.921 2.21967 21.7803C2.07902 21.6397 2 21.4489 2 21.25Z"/><path d="M18.75 22H21.25C21.4489 22 21.6397 21.921 21.7803 21.7803C21.921 21.6397 22 21.4489 22 21.25V18.75C22 18.3358 21.6642 18 21.25 18C20.8358 18 20.5 18.3358 20.5 18.75V20.5H18.75C18.3358 20.5 18 20.8358 18 21.25C18 21.6642 18.3358 22 18.75 22Z"/><path d="M22 2.75V5.25C22 5.66421 21.6642 6 21.25 6C20.8358 6 20.5 5.66421 20.5 5.25V3.5L18.75 3.5C18.3358 3.5 18 3.16421 18 2.75C18 2.33579 18.3358 2 18.75 2H21.25C21.6642 2 22 2.33579 22 2.75Z"/><path d="M11 4.49451C11.6188 4.13725 12.3812 4.13725 13 4.49451L18 7.38126C18.0811 7.42807 18.1581 7.48008 18.2307 7.53673L12 11.134L5.76932 7.53675C5.84192 7.48009 5.91892 7.42808 6 7.38126L11 4.49451Z"/><path d="M12.75 12.4331L18.9807 8.83576C18.9935 8.92697 19 9.01968 19 9.11331V14.8868C19 15.6013 18.6188 16.2616 18 16.6189L13 19.5056C12.9189 19.5524 12.8354 19.5931 12.75 19.6277L12.75 12.4331Z"/><path d="M11.25 12.4331L11.25 19.6277C11.1646 19.5931 11.0811 19.5524 11 19.5056L6 16.6189C5.3812 16.2616 5 15.6013 5 14.8868V9.11331C5 9.01968 5.00655 8.92699 5.01931 8.83578L11.25 12.4331Z"/></svg>

<svg xmlns="http://www.w3.org/2000/svg" width="24" height="24" fill="currentColor" viewBox="0 0 24 24">
  <path d="M2 2.75A.75.75 0 0 1 2.75 2h2.5a.75.75 0 0 1 0 1.5H3.5v1.75a.75.75 0 0 1-1.5 0v-2.5Zm0 18.5v-2.5a.75.75 0 0 1 1.5 0v1.75h1.75a.75.75 0 0 1 0 1.5h-2.5a.75.75 0 0 1-.75-.75Zm16.75.75h2.5a.75.75 0 0 0 .75-.75v-2.5a.75.75 0 0 0-1.5 0v1.75h-1.75a.75.75 0 0 0 0 1.5ZM22 2.75v2.5a.75.75 0 0 1-1.5 0V3.5h-1.75a.75.75 0 0 1 0-1.5h2.5a.75.75 0 0 1 .75.75ZM11 4.495a2 2 0 0 1 2 0l5 2.886a2 2 0 0 1 .23.156L12 11.134 5.77 7.537c.072-.057.149-.109.23-.156l5-2.886Zm1.75 7.938 6.23-3.597c.014.091.02.184.02.277v5.774a2 2 0 0 1-1 1.732l-5 2.887a2.01 2.01 0 0 1-.25.122v-7.195Zm-1.5 0v7.195a2.01 2.01 0 0 1-.25-.122l-5-2.887a2 2 0 0 1-1-1.732V9.113c0-.093.007-.186.02-.277l6.23 3.597Z"/>
</svg>
